svg/300/outlined/domain_verification_off-fill.svg

<svg xmlns="http://www.w3.org/2000/svg" width="48" height="48" viewBox="0 -960 960 960"><path d="M842.231-52.924 714.769-180.001H157.694q-23.846 0-40.77-16.923-16.923-16.924-16.923-40.77v-484.612q0-23.846 16.923-40.77 16.924-16.923 40.77-16.923h22.307v65.23L50.617-844.154l32.615-32.614L874.46-85.538l-32.23 32.614ZM157.694-225.385h511.692l-426-426.384h-98.001v414.075q0 5.385 3.462 8.847 3.462 3.462 8.847 3.462Zm690.382 20.922-33.461-33.846v-413.46h-413.46l-128.23-128.23h529.381q23.846 0 40.77 16.923 16.923 16.924 16.923 40.77v484.612q0 9.077-3.231 17.539-3.231 8.461-8.692 15.692ZM584.077-468.847l-33.23-33.23 55.922-55.922 33.23 33.23-55.922 55.922Zm-46.462 46.462L438-322.77 320.001-440.769l33.23-33.23L438-389.23l66.385-66.385 33.23 33.23Z"/></svg>

<svg xmlns="http://www.w3.org/2000/svg" width="48" height="48" viewBox="0 -960 960 960"><path d="M842.23-52.92 714.77-180H157.69q-23.84 0-40.77-16.92Q100-213.85 100-237.69v-484.62q0-23.84 16.92-40.77Q133.85-780 157.69-780H180v65.23L50.62-844.15l32.61-32.62L874.46-85.54l-32.23 32.62ZM157.69-225.39h511.7l-426-426.38h-98v414.08q0 5.38 3.46 8.84t8.84 3.46Zm690.39 20.93-33.47-33.85v-413.46H401.15L272.93-780h529.38q23.84 0 40.77 16.92Q860-746.15 860-722.31v484.62q0 9.07-3.23 17.53-3.23 8.47-8.69 15.7Zm-264-264.39-33.23-33.23L606.77-558 640-524.77l-55.92 55.92Zm-46.47 46.46L438-322.77l-118-118L353.23-474 438-389.23l66.39-66.38 33.22 33.22Z"/></svg>
